!!!COM: Mozart, Wolfgang Amadeus
!!!CDT: 1756/01/27/-1791/12/05/
!!!CNT: German
!!!OTL: Piano Sonata No. 16 in B-flat major
!!!SCT: K 576
!!!OMV: Mvmt. 1
!!!OMD: Allegro
!!!ODT: 1789///
**kern	**kern	**dynam
*staff2	*staff1	*staff1/2
*>[A,A,B,B]	*>[A,A,B,B]	*>[A,A,B,B]
*>norep[A,B]	*>norep[A,B]	*>norep[A,B]
*>A	*>A	*>A
*clefF4	*clefG2	*clefG2
*k[b-e-]	*k[b-e-]	*k[b-e-]
*B-:	*B-:	*B-:
*M3/4	*M3/4	*M3/4
*MM152	*MM152	*MM152
=1-	=1-	=1-
(2B-\	(2b-\	p
4F\	4f/	.
=2	=2	=2
2D\	2d/	.
4F\	4f/	.
=3	=3	=3
2B-\	2b-\	.
4d\	4dd\	.
=4	=4	=4
2f\)	2ff\)	.
4r	(8bb-\L	.
.	8dd\J	.
=5	=5	=5
[2.F\ [2.c\ [2.e-\	8ff\L	.
.	8ee-\	.
.	8dd\	.
.	8cc\	.
.	8b-\	.
.	8a\J	.
=6	=6	=6
2.F\] 2.c\] 2.e-\]	8g/L	.
.	8f/	.
.	8en/	.
.	8f/	.
.	8g/	.
.	8a/J	.
=7	=7	=7
4B-\ 4d\	8b-'/L)	.
.	32ccQ/	.
.	(16b-/L	.
.	16a/JJ	.
4r	8b-\L)	.
.	8cc'\	.
4r	8dd'\	.
.	8ee-'\J	.
=8	=8	=8
2.r	(8een\L	.
.	8ff\	.
.	8gg\	.
.	8ff\	.
.	8bb-\	.
.	8dd\J	.
=9	=9	=9
[2.F\ [2.c\ [2.e-\	8ff\L	.
.	8ee-\	.
.	8dd\	.
.	8cc\	.
.	8b-\	.
.	8a\J	.
=10	=10	=10
2.F\] 2.c\] 2.e-\]	8g/L	.
.	8f/	.
.	8en/	.
.	8f/	.
.	8g/	.
.	8a/J	.
=11	=11	=11
8B-\ 8d\	8b-\)	.
8r	8r	.
8B-\ 8d\	8b-\	.
8r	8r	.
8B-\ 8f\	8dd\	.
8r	8r	.
=12	=12	=12
4B-\ 4d\	4b-\	.
4r	8.r	.
.	16b-'\	f
4r	(16cc\LL	.
.	16b-\	.
.	16a\	.
.	16b-\JJ	.
=13	=13	=13
4r	4gg\)	.
4E-'\ 4G'\ 4B-'\	8.r	.
.	16b-'\	.
4r	(16cc\LL	.
.	16b-\	.
.	16a\	.
.	16b-\JJ	.
=14	=14	=14
4r	4ff\)	.
4D'\ 4F'\ 4B-'\	8.r	.
.	16b-'\	p
4r	(16cc\LL	.
.	16b-\	.
.	16a\	.
.	16b-\JJ	.
=15	=15	=15
(2.A\ [2.f\	4cc\	.
.	4ff\	.
.	4ee-\	.
=16	=16	=16
4B-\) 4f\]	4cc#\	.
4r	8dd\L)	.
.	16r	.
.	16b-'\Jk	f
4r	(16ccn\LL	.
.	16b-\	.
.	16a\	.
.	16b-\JJ	.
=17	=17	=17
4r	4gg\)	.
4E-'\ 4G'\ 4B-'\	8.r	.
.	16b-'\	.
4r	(16cc\LL	.
.	16b-\	.
.	16a\	.
.	16b-\JJ	.
=18	=18	=18
4r	4ff\)	.
4D'\ 4F'\ 4B-'\	8.r	.
.	16b-'\	p
4r	(16cc\LL	.
.	16b-\	.
.	16a\	.
.	16b-\JJ	.
=19	=19	=19
*^	*	*
(4A/	2.F\	4cc\	.
4c/	.	4ee-\)	.
4e-/)	.	4a/	.
*v	*v	*	*
=20	=20	=20
4d/	4b-\	.
4B-\	4r	.
4r	4r	.
=21	=21	=21
4G'\	4b-'\ 4dd'\ 4gg'\	f
4GG'/	4g'/	.
4r	4r	.
=22	=22	=22
4D'/	4f#'/ 4a'/ 4dd'/	.
4DD'/	4d'/	.
4r	4r	.
=23	=23	=23
*^	*	*
8G/L	2.E-\	(2e-/	p
8B-/	.	.	.
8G/	.	.	.
8B-/	.	.	.
8G/	.	16fn/LL	.
.	.	16e-/	.
8B-/J	.	16d/	.
.	.	16e-/JJ	.
=24	=24	=24	=24
8A-/L	2.D\	8cc\L	.
8B-/	.	8b-\J)	.
8A-/	.	4b-\	.
8B-/	.	.	.
8A-/	.	4b-\	.
8B-/J	.	.	.
=25	=25	=25	=25
8G/L	2.E-\	(8b-\L	.
8B-/	.	8ee-\	.
8G/	.	8dd\	.
8B-/	.	8dd-\	.
8G/	.	8cc\	.
8B-/J	.	8cc-\J	.
=26	=26	=26	=26
8A-/L	2.D\	4b-\)	.
8B-/	.	.	.
8A-/	.	4r	.
8B-/	.	.	.
8A-/	.	4r	.
8B-/J	.	.	.
=27	=27	=27	=27
8G/L	2.E-\	(2e-/	.
8B-/	.	.	.
8G/	.	.	.
8B-/	.	.	.
8G/	.	16f/LL	.
.	.	16e-/	.
8B-/J	.	16d/	.
.	.	16e-/JJ	.
=28	=28	=28	=28
8F/L	2.D\	8cc\L	.
8A-/	.	8bn\J)	.
8F/	.	4b\	.
8A-/	.	.	.
8F/	.	(4b\	.
8A-/J	.	.	.
=29	=29	=29	=29
8G/L	2.E-\	8cc'\L)	.
8c/	.	(8gg\	.
8G/	.	8ee-\	.
8c/	.	8dd\	.
8G/	.	8cc\	.
8c/J	.	8b-\J	.
=30	=30	=30	=30
8F/L	2.E-\	4an/)	.
8c/	.	.	.
8F/	.	4r	.
8c/	.	.	.
8F/	.	4r	.
8c/J	.	.	.
=31	=31	=31	=31
8F/L	2.D\	8b-'\L	.
8B-/	.	(8ddd\	.
8F/	.	8bb-\	.
8B-/	.	8aa\	.
8F/	.	8gg\	.
8B-/J	.	8ff\J	.
=32	=32	=32	=32
8G/L	2.C\	4een\)	.
8B-/	.	.	.
8G/	.	4r	.
8B-/	.	.	.
8G/	.	4r	.
8B-/J	.	.	.
=33	=33	=33	=33
8F/L	2.D\	8ff'\L	.
8A/	.	(8aa\	.
8F/	.	8ff\	.
8A/	.	8een\	.
8F/	.	8dd\	.
8A/J	.	8cc\J	.
=34	=34	=34	=34
8d/L	2.G\	4bn\)	.
8f/	.	.	.
8d/	.	4r	.
8f/	.	.	.
8d/	.	4r	.
8f/J	.	.	.
=35	=35	=35	=35
4c\	4en/	16r	.
.	.	(16cc\LL	f
.	.	16bn\	.
.	.	16cc\JJ	.
2r	4r	16dd\LL	.
.	.	16cc\	.
.	.	16b\	.
.	.	16cc\JJ)	.
*clefG2	*clefG2	*	*
.	(4b-/	16r	.
.	.	(16cc\LL	.
.	.	16een\	.
.	.	16cc\JJ)	.
*v	*v	*	*
=36	=36	=36
4a/	16r	.
.	(16cc\LL	.
.	16ff\	.
.	16cc\JJ)	.
4en/	16r	.
.	(16cc\LL	.
.	16bb-\	.
.	16cc\JJ)	.
4f/	16r	.
.	(16cc\LL	.
.	16aa\	.
.	16cc\JJ	.
=37	=37	=37
4c/)	16gg\LL	.
.	16een\	.
.	16dd\	.
.	16cc\JJ	.
4r	16bn\LL	.
.	16cc\	.
.	16dd\	.
.	16cc\JJ)	.
(4b-/	16r	.
.	(16cc\LL	.
.	16ee\	.
.	16cc\JJ)	.
=38	=38	=38
4a/	16r	.
.	(16cc\LL	.
.	16ff\	.
.	16cc\JJ)	.
4en/	16r	.
.	(16cc\LL	.
.	16bb-\	.
.	16cc\JJ)	.
4f/	16r	.
.	(16cc\LL	.
.	16aa\	.
.	16cc\JJ	.
=39	=39	=39
4c/)	16gg\LL	.
.	16ccc\	.
.	16gg\	.
.	16een\JJ	.
4r	16cc\LL	.
.	16gg\	.
.	16ee\	.
.	16cc\JJ	.
*clefF4	*	*
16r	16g/LL	.
(16c\LL	16cc/	.
16G\	16g/	.
16En\JJ	16en/JJ	.
=40	=40	=40
4C'/)	4c'/)	.
4CC'/	4en'/ 4g'/ 4cc'/	p
4r	4r	.
=41	=41	=41
(2F\	2.r	.
4C/	.	.
=42	=42	=42
2AA/	2.r	.
4C/	.	.
=43	=43	=43
2F\	8r	.
.	8ccc\L	.
.	8ccc\	.
.	8ccc\	.
4A\	8ccc\	.
.	8ccc\J	.
=44	=44	=44
4c\)	(8ddd\L	.
.	8ccc\	.
4r	8bb-\	.
.	8aa\	.
4r	8gg\	.
.	8ff\J)	.
=45	=45	=45
(2B-\	(8ff\L	.
.	8een\J)	.
.	4ee\	.
4G\	4r	.
=46	=46	=46
2En\	2.r	.
4G\	.	.
=47	=47	=47
2B-\	8r	.
.	8bb-\L	.
.	8bb-\	.
.	8bb-\	.
*clefG2	*	*
4en/	8bb-\	.
.	8bb-\J	.
=48	=48	=48
4g/)	(8ccc\L	.
.	8bb-\	.
4r	8aa\	.
.	8gg\	.
4r	8ff\	.
.	8een\J	.
=49	=49	=49
(8a\L	4ff\)	.
8cc\	.	.
8a\	8r	.
8cc\	(8aa\L	.
8a\	8gg\	.
8cc\J	8ff\J	.
=50	=50	=50
8b-\L	4een\)	.
8cc\	.	.
8b-\	8r	.
8cc\	(8ddd\L	.
8b-\	8ccc\	.
8cc\J	8ee\J	.
=51	=51	=51
8a\L	4ff\)	.
8cc\	.	.
8a\	8r	.
8cc\	(8aa\L	.
8a\	8gg\	.
8cc\J	8ff\J	.
=52	=52	=52
8b-\L	4een\)	.
8cc\	.	.
8b-\	8r	.
8cc\	(8ddd\L	.
8b-\	8ccc\	.
8cc\J	8ee\J	.
=53	=53	=53
8a\L	4ff\)	.
8cc\	.	.
8a\	8r	.
8cc\	(8ccc\L	.
8a\	8aa\	.
8cc\J	8gg\J	.
=54	=54	=54
*^	*	*
8a/L	2.d\	4ff#\)	.
8cc/	.	.	.
8a/	.	8r	.
8cc/	.	(8eee-\L	.
8a/	.	8ddd\	.
8cc/J)	.	8ff#\J	.
=55	=55	=55	=55
(4b-/	4g\	8aa\L	.
.	.	8gg\	.
2cc/	4en\	8ccc\	.
.	.	8bbn\	.
.	4f\)	8bb-\	.
.	.	8aa\J	.
=56	=56	=56	=56
(4b-/	4B-\	8.gg\L	.
.	.	16aa\Jk	.
4a/)	2c\	4ff\)	.
4g/	.	(8.een\L	.
.	.	32dd\LL	.
.	.	32ee\JJJ	.
=57	=57	=57	=57
4f/	4f\	16ff\LL)	f
.	.	(16cc\	.
.	.	16bn\	.
.	.	16cc\JJ	.
*v	*v	*	*
*clefF4	*	*
*^	*	*
2r	8r	16dd\LL	.
.	.	16cc\	.
.	(8A\L	16b\	.
.	.	16cc\JJ	.
.	8G\	16b-\LL	.
.	.	16cc\	.
.	8F\J	16a\	.
.	.	16cc\JJ	.
*v	*v	*	*
=58	=58	=58
4En\)	16g'\LL)	.
.	(16cc\	.
.	16bn\	.
.	16cc\JJ	.
8r	16dd\LL	.
.	16cc\	.
(8d\L	16b\	.
.	16cc\JJ	.
8c\	16bb-\LL	.
.	16cc\	.
8E\J	16bb-\	.
.	16cc\JJ	.
=59	=59	=59
4F\)	16aa'\LL)	.
.	(16cc\	.
.	16bn\	.
.	16cc\JJ	.
8r	16dd\LL	.
.	16cc\	.
(8A\L	16b\	.
.	16cc\JJ	.
8G\	16b-\LL	.
.	16cc\	.
8F\J	16a\	.
.	16cc\JJ	.
=60	=60	=60
4En\)	16g'\LL)	.
.	(16cc\	.
.	16bn\	.
.	16cc\JJ	.
8r	16dd\LL	.
.	16cc\	.
(8d\L	16b\	.
.	16cc\JJ	.
8c\	16bb-\LL	.
.	16cc\	.
8E\J	16bb-\	.
.	16cc\JJ	.
=61	=61	=61
4F\)	16aa'\LL)	.
.	(16cc\	.
.	16bn\	.
.	16cc\JJ	.
8r	16dd\LL	.
.	16cc\	.
(8c\L	16b\	.
.	16cc\JJ	.
8A\	16ee-\LL	.
.	16cc\	.
8G\J	16b-\	.
.	16cc\JJ	.
=62	=62	=62
4F#\)	16a'\LL)	.
.	(16dd\	.
.	16cc#\	.
.	16dd\JJ	.
8r	16een\LL	.
.	16dd\	.
(8e-\L	16cc#\	.
.	16dd\JJ	.
8d\	16cccn\LL	.
.	16dd\	.
8F#\J	16ccc\	.
.	16dd\JJ	.
=63	=63	=63
16G\LL	4bbn\	.
16d\	.	.
16Bn\	.	.
16d\JJ	.	.
16En\LL	4bb-\	.
16d-\	.	.
16G\	.	.
16d-\JJ	.	.
16F\LL	4aa\)	.
16c\	.	.
16A\	.	.
16c\JJ)	.	.
=64	=64	=64
4BB-\ (4B-\	(16gg\LL	.
.	16ddd\	.
.	16bb-\	.
.	16gg\JJ	.
4C\ 4A\	16ff\LL	.
.	16ccc\	.
.	16aa\	.
.	16ff\JJ	.
4BB-\ 4G\)	16een\LL	.
.	16bb-\	.
.	16gg\	.
.	16ee\JJ	.
=65	=65	=65
4AA/ 4F/	16ff\LL	.
.	16aa\	.
.	16ccc\	.
.	16bb-\JJ	.
4r	16aa\LL	.
.	16gg\	.
.	16ff\	.
.	16een\JJ	.
4A\ 4c\	16dd\LL	.
.	16cc\	.
.	16b-\	.
.	16a\JJ	.
=66	=66	=66
4B-\ 4d\	16g\LL	.
.	16b-\	.
.	16dd\	.
.	16cc\JJ	.
4r	16b-/LL	.
.	16a/	.
.	16g/	.
.	16f/JJ	.
4D\ 4F\ 4G\	16en/LL	.
.	16d/	.
.	16c/	.
.	16Bn/JJ	.
=67	=67	=67
(16C\LL	8c'/)	.
16A\	.	.
16F\	8cc'\L	.
16A\JJ	.	.
16C\LL	8ff'\	.
16A\	.	.
16F\	8aa\	.
16A\JJ	.	.
16C\LL	8ccc'\	.
16A\	.	.
16F\	8fff'\J	.
16A\JJ	.	.
=68	=68	=68
16C\LL	(2.gg\	.
16B-\	.	.
16En\	.	.
16B-\JJ	.	.
16C\LL	.	.
16B-\	.	.
16E\	.	.
16B-\JJ	.	.
16C\LL	.	.
16B-\	.	.
16E\	.	.
16B-\JJ)	.	.
=69	=69	=69
.	16ffQ/LL	.
.	16ggQ/JJ)	.
(8F\L	4ff\	>
8A\	.	.
8c\	4r	.
8f\	.	.
8en\	4r	.
8e-\J	.	.
=70	=70	=70
8d\L	(4bb-\	p
8f\	.	.
8c\	4ccc\	.
8f\	.	.
8B-\	4ddd\)	.
8f\J	.	.
*clefG2	*	*
=71	=71	=71
8A/L	(4.ccc\	.
8f/	.	.
8en/	.	.
8f/	16ddd\LL	.
.	16ccc\JJ	.
8B-/	16bb-\LL	.
.	16aa\	.
8g/J	16gg\	.
.	16ff\JJ	.
=72	=72	=72
8c/L	4.aa\	.
8a/	.	.
8f/	.	.
8a/	8bb-\	.
8c/	4gg\	.
8b-/J	.	.
=73	=73	=73
8a/L)	4ff\)	.
(8f/	.	.
8en/	4r	.
8e-/	.	.
8d/	4r	.
8c#/J	.	.
=74	=74	=74
8d/L	(8b-\L	.
8f/	8bb-\	.
8cn/	8cc\	.
8en/	8ccc\	.
8Bn/	8dd\	.
8a-/J	8ddd\J	.
=75	=75	=75
8c/L	8ccc\L	.
8an/	16ddd\L	.
.	16eeen\JJ	.
8f/	16fff\LL	.
.	16eee\	.
8a/	16ddd\	.
.	16ccc\JJ	.
8c/	16bb-\LL	.
.	16aa\	.
8a/J	16gg\	.
.	16ff\JJ	.
=76	=76	=76
8c/L	4.aa\	.
8cc/	.	.
8a/	.	.
8cc/	8bb-\	.
8c/	4gg\	.
8b-/J)	.	.
*clefF4	*	*
=77	=77	=77
16r	4ff\)	f
(16F\LL	.	.
16A\	.	.
16c\JJ	.	.
8f\)	16r	.
.	(16ccc\LL	.
8r	16ddd\	.
.	16ccc\JJ	.
8c\ 8en\	16bb-\LL	.
.	16aa\	.
8r	16bb-\	.
.	16gg\JJ	.
=78	=78	=78
16r	4ff\)	.
(16FF/LL	.	.
16AA/	.	.
16C/JJ	.	.
8F\)	16r	.
.	(16cc\LL	.
8r	16dd\	.
.	16cc\JJ	.
8C\ 8En\	16b-/LL	.
.	16a/	.
8r	16b-/	.
.	16g/JJ	.
=79	=79	=79
4F\	4f/)	.
4FF/	4a\ 4cc\ 4ff\	.
4r	4r	.
=80:|!|:	=80:|!|:	=80:|!|:
*>B	*>B	*>B
4E-\	4g-/	f
4EE-/	4a-\ 4cc\ 4gg-\	.
4r	4r	.
=81	=81	=81
*^	*	*
8F/L	2.D-\	(2d-/	p
8A-/	.	.	.
8F/	.	.	.
8A-/	.	.	.
8F/	.	16e-/LL	.
.	.	16d-/	.
8A-/J	.	16c/	.
.	.	16d-/JJ	.
=82	=82	=82	=82
8G-/L	2.C\	8b-/L	.
8A-/	.	8a-/J)	.
8G-/	.	4a-/	.
8A-/	.	.	.
8G-/	.	4a-/	.
8A-/J	.	.	.
=83	=83	=83	=83
8F/L	2.D-\	8a-\L	.
8A-/	.	(8dd-\	.
8F/	.	8cc\	.
8A-/	.	8cc-\	.
8F/	.	8b-\	.
8A-/J	.	8b--\J	.
=84	=84	=84	=84
8G-/L	2.C\	4a-/)	.
8A-/	.	.	.
8G-/	.	4r	.
8A-/	.	.	.
8G-/	.	4r	.
8A-/J	.	.	.
=85	=85	=85	=85
8F/L	2.D-\	(2d-/	.
8A-/	.	.	.
8F/	.	.	.
8A-/	.	.	.
8F/	.	16e-/LL	.
.	.	16d-/	.
8A-/J	.	16c/	.
.	.	16d-/JJ	.
=86	=86	=86	=86
8E-/L	2.C\	8b-/L	<
8G-/	.	8an/J)	.
8E-/	.	4a/	.
8G-/	.	.	.
8E-/	.	(4a/	.
8G-/J	.	.	.
=87	=87	=87	=87
8F/L	2.D-\	8b-\L	>
8B-/	.	8ff\	.
8F/	.	8dd-\	.
8B-/	.	8cc\	.
8F/	.	8b-\	.
8B-/J	.	8a-\J	.
=88	=88	=88	=88
8B-/L	2.En\	4gn/)	.
8d-/	.	.	.
8B-/	.	4r	.
8d-/	.	.	.
8B-/	.	4r	.
8d-/J	.	.	.
=89	=89	=89	=89
8A-/L	2.F\	8a-'\L	.
8c/	.	(8aa-\	.
8A-/	.	8ff\	.
8c/	.	8ee-\	.
8A-/	.	8ddn\	.
8c/J	.	8cc\J	.
*v	*v	*	*
*clefG2	*	*
=90	=90	=90
*^	*	*
8dn/L	2.G\	4bn\)	.
8f/	.	.	.
8d/	.	4r	.
8f/	.	.	.
8d/	.	4r	.
8f/J	.	.	.
=91	=91	=91	=91
8c/L	2.A-\	8cc'\L	.
8e-/	.	(8eee-\	.
8c/	.	8ccc\	.
8e-/	.	8bb-\	.
8c/	.	8aa-\	.
8e-/J	.	8gg\J	.
=92	=92	=92	=92
8c/L	2.An\	4ff#\)	.
8d/	.	.	.
8c/	.	4r	.
8d/	.	.	.
8c/	.	4r	.
8d/J	.	.	.
=93	=93	=93	=93
8d/L	2.B-\	8gg'\L	.
8g/	.	(8bb-\	.
8d/	.	8gg\	.
8g/	.	8ffn\	.
8d/	.	8ee-\	.
8g/J	.	8dd\J	.
=94	=94	=94	=94
8g/L	2.e-\	4cc#\)	.
8an/	.	.	.
8g/	.	4r	.
8a/	.	.	.
8g/	.	4r	.
8a/J	.	.	.
*v	*v	*	*
=95	=95	=95
4d/ 4f#/	16r	.
.	(16dd\LL	<
.	16cc#\	.
.	16dd\JJ	.
4r	16een\LL	.
.	16dd\	.
.	16cc#\	.
.	16dd\JJ)	f
(4ccn\	16r	.
.	(16dd\LL	.
.	16ff#\	.
.	16dd\JJ)	.
=96	=96	=96
4b-\	16r	.
.	(16dd\LL	.
.	16gg\	.
.	16dd\JJ)	.
4f#/	16r	.
.	(16dd\LL	.
.	16ccc\	.
.	16dd\JJ)	.
4g/	16r	.
.	(16dd\LL	.
.	16bb-\	.
.	16dd\JJ	.
=97	=97	=97
4d/)	16aa\LL	.
.	16ff#\	.
.	16een\	.
.	16dd\JJ	.
4r	16cc#\LL	.
.	16dd\	.
.	16ee\	.
.	(16dd\JJ)	.
(4ccn\	16r	.
.	16dd\LL	.
.	16ff#\	.
.	16dd\JJ)	.
=98	=98	=98
4b-\	16r	.
.	(16dd\LL	.
.	16gg\	.
.	16dd\JJ)	.
4f#/	16r	.
.	(16dd\LL	.
.	16ccc\	.
.	16dd\JJ)	.
4g/	16r	.
.	(16dd\LL	.
.	16bb-\	.
.	16dd\JJ	.
=99	=99	=99
4d/)	16aa\LL	.
.	16ddd\	.
.	16aa\	.
.	16ff#\JJ	.
4r	16dd\LL	.
.	16aa\	.
.	16ff#\	.
.	16dd\JJ	.
*clefF4	*	*
16r	16a/LL	.
(16d\LL	16dd/	.
16A\	16a/	.
16F#\JJ	16f#/JJ	.
=100	=100	=100
4D'\)	4d'/)	.
4DD'/	4f#'/ 4a'/ 4dd'/	p
4r	4r	.
=101	=101	=101
(2G\	2.r	.
4D\	.	.
=102	=102	=102
2BBn/	2.r	.
4D\	.	.
=103	=103	=103
2G\	8r	.
.	8ddd\L	.
.	8ddd\	.
.	8ddd\	.
4Bn\	8ddd\	.
.	8ddd\J	.
=104	=104	=104
4d\)	(8eee-\L	.
.	8ddd\	.
4r	8ccc\	.
.	8bbn\	.
4r	8aa-\	.
.	8gg\J)	.
=105	=105	=105
(2G\	(8gg\L	.
.	8ffn\J)	.
.	4ff\	.
4D\	4r	.
=106	=106	=106
2BBn/	2.r	.
4D\	.	.
=107	=107	=107
2G\	8r	.
.	8ff\L	.
.	8ff\	.
.	8ff\	.
4Bn\	8ff\	.
.	8ff\J	.
=108	=108	=108
4d\)	(8gg\L	.
.	8ff\	.
4r	8ee-\	.
.	8dd\	.
4r	8cc\	.
.	8bn\J	.
=109	=109	=109
2.r	(2cc\)	.
.	4g/	.
=110	=110	=110
2.r	2e-/	.
.	4g/	.
=111	=111	=111
8r	2cc\	.
8G\L	.	.
8G\	.	.
8G\	.	.
8G\	4ee-\	.
8G\J	.	.
=112	=112	=112
(8A-\L	4gg\)	.
8G\	.	.
8F\	4r	.
8E-\	.	.
8D\)	4r	.
8C\J	.	.
=113	=113	=113
(8C/L	(2een\	.
8BB-/J)	.	.
4BB-/	.	.
4r	4cc\	.
=114	=114	=114
2.r	2g/	.
.	4cc\	.
=115	=115	=115
8r	2een\	.
8B-\L	.	.
8B-\	.	.
8B-\	.	.
8B-\	4gg\	.
8B-\J	.	.
=116	=116	=116
(8c\L	4bb-\)	.
8B-\	.	.
8A-\	4r	.
8G\	.	.
8F\	4r	.
8En\J	.	.
=117	=117	=117
4F\)	8r	.
.	8aa-\L	.
4r	8aa-\	.
.	8aa-\	.
4r	8aa-\	.
.	8aa-\J	.
*clefG2	*	*
=118	=118	=118
*^	*	*
4d/ (4f/	2.B-\	(8bb-\L	.
.	.	8aa-\	.
4e-/ 4g/	.	8gg\	.
.	.	8ff\	.
4f/ 4a-/)	.	8ee-\	.
.	.	8dd\J)	.
*v	*v	*	*
=119	=119	=119
4e-/ 4g/	8r	.
.	8gg\L	.
4r	8gg\	.
.	8gg\	.
4r	8gg\	.
.	8gg\J	.
=120	=120	=120
*^	*	*
4c/ (4e-/	2.A-\	(8aa-\L	.
.	.	8gg\	.
4d/ 4f/	.	8ff\	.
.	.	8ee-\	.
4e-/ 4g/)	.	8dd\	.
.	.	8cc\J)	.
*v	*v	*	*
=121	=121	=121
4d/ 4f/	8r	.
.	8ff\L	.
4r	8ff\	.
.	8ff\	.
4r	8ff\	.
.	8ff\J	.
=122	=122	=122
*^	*	*
4Bn/ (4d/	2.G\	(8gg^\L	.
.	.	8ff\	.
4c/ 4e-/	.	8ee-\	.
.	.	8dd\	.
4d/ 4f/)	.	8cc\	.
.	.	8bn\J)	.
*v	*v	*	*
=123	=123	=123
4c/ 4e-/	(8ff^\L	.
.	8ee-\	.
4r	8dd\	.
.	8cc\	.
*clefF4	*	*
4F\ 4e-\	8b-\	.
.	8a\J)	.
=124	=124	=124
4G\ 4d\	(8ccc^\L	.
.	8bb-\	.
4r	8aa\	.
.	8gg\	.
*clefG2	*	*
4g/ 4b-/	8ff\	.
.	8een\J)	.
=125	=125	=125
8r	4ff\	f
8f/L	.	.
8f/	4r	.
8f/	.	.
8f/	4a\ (4ee-\	.
8f/J	.	.
=126	=126	=126
(8g-/L	4b-\ 4dd-\)	.
8f/	.	.
8e-/	4r	.
8d-/	.	.
8c/	4dd-\ (4bb-\	.
8B-/J)	.	.
=127	=127	=127
8r	4cc\ 4aa\)	.
*clefF4	*	*
8F\L	.	.
8F\	4r	.
8F\	.	.
8F\	(4e-/ 4a/	.
8F\J	.	.
=128	=128	=128
(8G-\L	4d-/) 4b-/	.
8F\	.	.
8E-\	4r	.
8D-\	.	.
8C\	(4B-/ 4d-/	.
8BB-\J	.	.
=129	=129	=129
4FF/)	8A/) 8c/L	.
.	8f/	.
4r	8f/	.
.	8f/	.
4r	8f/	.
.	8f/J	.
=130	=130	=130
[2.F\ [2.A\ [2.en\	(8en/L	.
.	8f/	.
.	8g/	.
.	8f/	.
.	8b-/	.
.	8a/J	.
=131	=131	=131
2.F\_ 2.A\_ 2.e\_	8ddn\L	.
.	8cc\	.
.	8ee-\	.
.	8dd\	.
.	8gg\	.
.	8ff\J)	.
=132	=132	=132
4F\] 4A\] 4e\]	(4.ff\	.
4r	.	.
.	8een\L	.
4r	8ee-\	.
.	8cc\J	.
=133	=133	=133
(2B-\	(2b-\)	p
4F\	4f/	.
=134	=134	=134
2D\	2d/	.
4F\	4f/	.
=135	=135	=135
2B-\	2b-\	.
4d\	4dd\	.
=136	=136	=136
2f\)	2ff\)	.
4r	(8bb-\L	.
.	8dd\J	.
=137	=137	=137
[2.F\ [2.c\ [2.e-\	8ff\L	.
.	8ee-\	.
.	8dd\	.
.	8cc\	.
.	8b-\	.
.	8a\J	.
=138	=138	=138
2.F\] 2.c\] 2.e-\]	8g/L	.
.	8f/	.
.	8en/	.
.	8f/	.
.	8g/	.
.	8a/J	.
=139	=139	=139
4B-\ 4d\	8b-'/L	.
.	32ccQ/)	.
.	(16b-/L	.
.	16a/JJ	.
4r	8b-\L	.
.	8cc'\)	.
4r	8dd'\	.
.	8ee-'\J	.
=140	=140	=140
2.r	(8een\L	.
.	8ff\	.
.	8gg\	.
.	8ff\	.
.	8bb-\	.
.	8dd\J	.
=141	=141	=141
[2.F\ [2.c\ [2.e-\	8ff\L	.
.	8ee-\	.
.	8dd\	.
.	8cc\	.
.	8b-\	.
.	8a\J	.
=142	=142	=142
2.F\] 2.c\] 2.e-\]	8g/L	.
.	8f/	.
.	8en/	.
.	8f/	.
.	8g/	.
.	8a/J	.
=143	=143	=143
8B-\ 8d\	8b-\)	.
8r	8r	.
8B-\ 8d\	8b-\	.
8r	8r	.
8B-\ 8f\	8dd\	.
8r	8r	.
=144	=144	=144
4B-\ 4d\	4b-\	.
4r	8.r	.
.	16b-'\	f
4r	(16cc\LL	.
.	16b-\	.
.	16a\	.
.	16b-\JJ	.
=145	=145	=145
4r	4gg\)	.
4E-'\ 4G'\ 4B-'\	8.r	.
.	16b-'\	.
4r	(16cc\LL	.
.	16b-\	.
.	16a\	.
.	16b-\JJ	.
=146	=146	=146
4r	4ff\)	.
4D'\ 4F'\ 4B-'\	8.r	.
.	16b-'\	p
4r	(16cc\LL	.
.	16b-\	.
.	16a\	.
.	16b-\JJ	.
=147	=147	=147
2.A\ [2.f\	4cc\	.
.	4ff\	.
.	4ee-\	.
=148	=148	=148
4B-\ 4f\]	4cc#\	.
4r	8dd\L)	.
.	16r	.
.	16b-'\Jk	f
4r	(16ccn\LL	.
.	16b-\	.
.	16a\	.
.	16b-\JJ	.
=149	=149	=149
4r	4gg\)	.
4E-'\ 4G'\ 4B-'\	8.r	.
.	16b-'\	.
4r	(16cc\LL	.
.	16b-\	.
.	16a\	.
.	16b-\JJ	.
=150	=150	=150
4r	4ff\)	.
4D'\ 4F'\ 4B-'\	8.r	.
.	16b-'\	p
4r	(16cc\LL	.
.	16b-\	.
.	16a\	.
.	16b-\JJ	.
=151	=151	=151
*^	*	*
(4A/	2.F\	4cc\	.
4c/	.	4ee-\)	.
4e-/)	.	4a/	.
=152	=152	=152	=152
4d/	4B-\	4b-\	.
2r	4r	4r	.
.	4r	4r	.
*v	*v	*	*
=153	=153	=153
4G'\	4b-'\ 4dd'\ 4gg'\	f
4GG'/	4g'/	.
4r	4r	.
=154	=154	=154
4D'/	4f#'/ 4a'/ 4dd'/	.
4DD'/	4d'/	.
4r	4r	.
=155	=155	=155
*^	*	*
8G/L	2.E-\	(2e-/	p
8B-/	.	.	.
8G/	.	.	.
8B-/	.	.	.
8G/	.	16fn/LL	.
.	.	16e-/	.
8B-/J	.	16d/	.
.	.	16e-/JJ	.
=156	=156	=156	=156
8A-/L	2.D\	8cc\L	.
8B-/	.	8b-\J)	.
8A-/	.	4b-\	.
8B-/	.	.	.
8A-/	.	4b-\	.
8B-/J	.	.	.
=157	=157	=157	=157
8G/L	2.E-\	(8b-\L	.
8B-/	.	8ee-\	.
8G/	.	8dd\	.
8B-/	.	8dd-\	.
8G/	.	8cc\	.
8B-/J	.	8cc-\J	.
=158	=158	=158	=158
8A-/L	2.D\	4b-\)	.
8B-/	.	.	.
8A-/	.	4r	.
8B-/	.	.	.
8A-/	.	4r	.
8B-/J	.	.	.
=159	=159	=159	=159
8G/L	2.E-\	(2e-/	.
8B-/	.	.	.
8G/	.	.	.
8B-/	.	.	.
8G/	.	16f/LL	.
.	.	16e-/	.
8B-/J	.	16d/	.
.	.	16e-/JJ	.
=160	=160	=160	=160
8F/L	2.D\	8cc\L	.
8A-/	.	8bn\J)	.
8F/	.	4b\	.
8A-/	.	.	.
8F/	.	(4b\	.
8A-/J	.	.	.
=161	=161	=161	=161
8G/L	2.E-\	8cc'\L)	.
8c/	.	(8gg\	.
8G/	.	8ee-\	.
8c/	.	8dd\	.
8G/	.	8cc\	.
8c/J	.	8b-\J	.
=162	=162	=162	=162
8c/L	2.F\	4an/)	.
8e-/	.	.	.
8c/	.	4r	.
8e-/	.	.	.
8c/	.	4r	.
8e-/J	.	.	.
=163	=163	=163	=163
8B-/L	2.G\	8b-'\L	.
8d/	.	(8ddd\	.
8B-/	.	8bb-\	.
8d/	.	8aa\	.
8B-/	.	8gg\	.
8d/J	.	8ff\J	.
*v	*v	*	*
*clefG2	*	*
=164	=164	=164
*^	*	*
8g/L	2.c\	4een\)	.
8b-/	.	.	.
8g/	.	4r	.
8b-/	.	.	.
8g/	.	4r	.
8b-/J	.	.	.
*v	*v	*	*
=165	=165	=165
4f/ 4a/	16r	.
.	(16ff\LL	f
.	16een\	.
.	16ff\JJ	.
4r	16gg\LL	.
.	16ff\	.
.	16ee\	.
.	16ff\JJ)	.
(4ee-\	16r	.
.	(16ff\LL	.
.	16aa\	.
.	16ff\JJ)	.
=166	=166	=166
4dd\	16r	.
.	(16ff\LL	.
.	16bb-\	.
.	16ff\JJ)	.
4a/	16r	.
.	(16ff\LL	.
.	16eee-\	.
.	16ff\JJ)	.
4b-\	16r	.
.	(16ff\LL	.
.	16ddd\	.
.	16ff\JJ	.
=167	=167	=167
4f/)	16ccc\LL	.
.	16aa\	.
.	16gg\	.
.	16ff\JJ	.
4r	16een\LL	.
.	16ff\	.
.	16gg\	.
.	16ff\JJ)	.
(4ee-\	16r	.
.	(16ff\LL	.
.	16aa\	.
.	16ff\JJ)	.
=168	=168	=168
4dd\	16r	.
.	(16ff\LL	.
.	16bb-\	.
.	16ff\JJ)	.
4a/	16r	.
.	(16ff\LL	.
.	16eee-\	.
.	16ff\JJ)	.
4b-\	16r	.
.	(16ff\LL	.
.	16ddd\	.
.	16ff\JJ	.
=169	=169	=169
4f/)	16ccc\LL	.
.	16fff\	.
.	16ccc\	.
.	16aa\JJ	.
4r	16ff\LL	.
.	16ccc\	.
.	16aa\	.
.	16ff\JJ	.
*clefF4	*	*
16r	16cc\LL	.
(16f\LL	16ff\	.
16c\	16cc\	.
16A\JJ	16a\JJ	.
=170	=170	=170
4F'\)	4f'/)	.
4FF'/	4a'\ 4cc'\ 4ff'\	p
4r	4r	.
=171	=171	=171
(2B-\	2.r	.
4F\	.	.
=172	=172	=172
2D\	2.r	.
4F\	.	.
=173	=173	=173
2B-\	8r	.
.	8ff\L	.
.	8ff\	.
.	8ff\	.
4d\	8ff'\	.
.	8ff\J	.
=174	=174	=174
4f\)	(8gg\L	.
.	8ff\	.
4r	8ee-\	.
.	8dd\	.
4r	8cc\	.
.	8b-\J	.
=175	=175	=175
(2E-\	(8b-/L)	.
.	8a/J)	.
.	4a/	.
4C/	4r	.
=176	=176	=176
2AA/	2.r	.
4C/	.	.
=177	=177	=177
2E-\	8r	.
.	8ee-\L	.
.	8ee-\	.
.	8ee-\	.
4A\	8ee-\	.
.	8ee-\J	.
=178	=178	=178
4c\)	(8ff\L	.
.	8ee-\	.
4r	8dd\	.
.	8cc\	.
4r	8b-\	.
.	8a\J	.
*clefG2	*	*
=179	=179	=179
(8d/L	4b-\)	.
8f/	.	.
8d/	8r	.
8f/	(8dd\L	.
8d/	8cc\	.
8f/J	8b-\J	.
=180	=180	=180
8e-/L	4a/)	.
8f/	.	.
8e-/	8r	.
8f/	(8gg\L	.
8e-/	8ff\	.
8f/J	8a\J	.
=181	=181	=181
8d/L	4b-\)	.
8f/	.	.
8d/	8r	.
8f/	(8dd\L	.
8d/	8cc\	.
8f/J	8b-\J	.
=182	=182	=182
8e-/L	4a/)	.
8f/	.	.
8e-/	8r	.
8f/	(8gg-\L	.
8e-/	8ff\	.
8f/J	8a\J	.
=183	=183	=183
8d-/L	4b-\)	.
8f/	.	.
8d-/	8r	.
8f/	(8ff\L	.
8d-/	8dd-\	.
8f/J)	8cc\J	.
=184	=184	=184
*^	*	*
(8dn/L	2.G\	4bn\)	.
8f/	.	.	.
8d/	.	8r	.
8f/	.	(8aa-\L	.
8d/	.	8gg\	.
8f/J)	.	8b\J	.
=185	=185	=185	=185
(4e-/	4c\	8ddn\L	.
.	.	8cc\	.
2f/	4A\	8ff\	.
.	.	8een\	.
.	4B-\)	8ee-\	.
.	.	8dd\J	.
*v	*v	*	*
*clefF4	*	*
=186	=186	=186
*^	*	*
(4e-/	4E-\	8.cc\L	.
.	.	16dd\Jk	.
4d/)	2F\	4b-\)	.
4c/	.	(8.a/L	.
.	.	32g/LL	.
.	.	32a/JJJ	.
=187	=187	=187	=187
4B-/	4B-\	16b-/LL)	.
.	.	(16f/	f
.	.	16en/	.
.	.	16f/JJ	.
8r	2r	16g/LL	.
.	.	16f/	.
(8D/L	.	16e/	.
.	.	16f/JJ	.
8C/	.	16e-/LL	.
.	.	16f/	.
8BB-/J	.	16d/	.
.	.	16f/JJ	.
*v	*v	*	*
=188	=188	=188
4AA/)	16c'/LL)	.
.	(16f/	.
.	16en/	.
.	16f/JJ	.
8r	16g/LL	.
.	16f/	.
(8G\L	16e/	.
.	16f/JJ	.
8F\	16ee-\LL	.
.	16f\	.
8AA\J	16ee-\	.
.	16f\JJ	.
=189	=189	=189
4BB-/)	16dd'\LL)	.
.	(16ff\	.
.	16een\	.
.	16ff\JJ	.
8r	16gg\LL	.
.	16ff\	.
(8d\L	16ee\	.
.	16ff\JJ	.
8c\	16ee-\LL	.
.	16ff\	.
8B-\J	16dd\	.
.	16ff\JJ	.
=190	=190	=190
4A\)	16cc'\LL)	.
.	(16ff\	.
.	16een\	.
.	16ff\JJ	.
8r	16gg\LL	.
.	16ff\	.
(8g\L	16ee\	.
.	16ff\JJ	.
8f\	16eee-\LL	.
.	16ff\	.
8A\J	16eee-\	.
.	16ff\JJ	.
=191	=191	=191
4B-\)	16ddd'\LL)	.
.	(16ff\	.
.	16een\	.
.	16ff\JJ	.
8r	16gg\LL	.
.	16ff\	.
(8f\L	16ee\	.
.	16ff\JJ	.
8d\	16aa-\LL	.
.	16ff\	.
8c\J	16ee-\	.
.	16ff\JJ	.
=192	=192	=192
4Bn\)	16dd'\LL)	.
.	(16gg\	.
.	16ff#\	.
.	16gg\JJ	.
8r	16aan\LL	.
.	16gg\	.
*clefG2	*	*
(8a-/L	16ff#\	.
.	16gg\JJ	.
8g/	16fffn\LL	.
.	16gg\	.
8Bn/J	16fff\	.
.	16gg\JJ	.
=193	=193	=193
16c/LL	4eeen\	.
16g/	.	.
16en/	.	.
16g/JJ	.	.
16A/LL	4eee-\	.
16g-/	.	.
16c/	.	.
16g-/JJ	.	.
16B-/LL	4ddd\)	.
16f/	.	.
16d/	.	.
16f/JJ)	.	.
*clefF4	*	*
=194	=194	=194
4E-\ (4e-\	(16ddd\LL	.
.	16ccc\	.
.	16eee-\	.
.	16ccc\JJ)	.
4F\ 4d\	(16ccc\LL	.
.	16bb-\	.
.	16ddd\	.
.	16bb-\JJ)	.
4E-\ 4c\	(16bb-\LL	.
.	16aa\	.
.	16ccc\	.
.	16aa\JJ)	.
=195	=195	=195
4D\ 4B-\)	(16bb-\LL	.
.	16ddd\	.
.	16fff\	.
.	16eee-\JJ	.
4r	16ddd\LL	.
.	16ccc\	.
.	16bb-\	.
.	16aa\JJ	.
*clefG2	*	*
4d/ 4f/	16gg\LL	.
.	16ff\	.
.	16ee-\	.
.	16dd\JJ	.
=196	=196	=196
4e-/ 4g/	16cc\LL	.
.	16ee-\	.
.	16gg\	.
.	16ff\JJ	.
4r	16ee-\LL	.
.	16dd\	.
.	16cc\	.
.	16b-\JJ	.
*clefF4	*	*
4G\ 4B-\ 4c\	16a/LL	.
.	16g/	.
.	16f/	.
.	16en/JJ	.
=197	=197	=197
16F\LL	8f'/L)	f
16d\	.	.
16B-\	8b-'/J	.
16d\JJ	.	.
16F\LL	8dd'\L	.
16d\	.	.
16B-\	8ff'\	.
16d\JJ	.	.
16F\LL	8bb-'\	.
16d\	.	.
16B-\	8ddd'\J	.
16d\JJ	.	.
=198	=198	=198
16F\LL	2.cc\	.
16e-\	.	.
16A\	.	.
16e-\JJ	.	.
16F\LL	.	.
16e-\	.	.
16A\	.	.
16e-\JJ	.	.
16F\LL	.	.
16e-\	.	.
16A\	.	.
16e-\JJ	.	.
*clefG2	*	*
=199	=199	=199
.	16b-Q/LL	.
.	16ccQ/JJ	.
8B-/L	4b-\	>
8d/	.	.
8f/	4r	.
8b-/	.	.
8a/	4r	.
8a-/J	.	.
=200	=200	=200
8g/L	(4ee-\	p
8b-/	.	.
8f/	4ff\	.
8b-/	.	.
8e-/	4gg\)	.
8b-/J	.	.
=201	=201	=201
8d/L	(4.ff\	.
8b-/	.	.
8a/	.	.
8b-/J	16gg\LL	.
.	16ff\JJ	.
*clefF4	*	*
8G\L	16ee-\LL	.
.	16dd\	.
8e-\J	16cc\	.
.	16b-\JJ	.
=202	=202	=202
8F\L	4.dd\	.
8d\	.	.
8B-\	.	.
8d\	8ee-\	.
8F\	4cc\	.
8e-\J	.	.
=203	=203	=203
8d\L	4b-\)	.
8B-\	.	.
8A\	4r	.
8A-\	.	.
8G\	4r	.
8F#\J	.	.
=204	=204	=204
8G\L	(8e-\L	.
8B-\	8ee-\	.
8Fn\	8f\	.
8An\	8ff\	.
8En\	8g\	.
8d-\J	8gg\J	.
=205	=205	=205
8F\L	8ff\L	.
8dn\	16gg\L	.
.	16aa\JJ	.
8B-\	16bb-\LL	.
.	16aa\	.
8d\	16gg\	.
.	16ff\JJ	.
8F\	16ee-\LL	.
.	16dd\	.
8d\J	16cc\	.
.	16b-\JJ	.
=206	=206	=206
(8F\L	4.dd\	.
8f\	.	.
8d\	.	.
8f\	8ee-\	.
8F\	4cc\	.
8e-\J)	.	.
*clefG2	*	*
=207	=207	=207
16r	4b-\)	f
(16B-/LL	.	.
16d/	.	.
16f/JJ	.	.
8b-/)	16r	.
.	(16ff\LL	.
8r	16gg\	.
.	16ff\JJ	.
*clefF4	*	*
8F\ 8A\	16ee-\LL	.
.	16dd\	.
8r	16ee-\	.
.	16cc\JJ	.
=208	=208	=208
16r	4b-\)	.
(16BB-\LL	.	.
16D\	.	.
16F\JJ	.	.
8B-\)	16r	.
.	(16f/LL	.
8r	16g/	.
.	16f/JJ	.
8FF/ 8AA/	16e-/LL	.
.	16d/	.
8r	16e-/	.
.	16c/JJ	.
=209	=209	=209
4BB-/	4B-/)	.
4BBB-/	4dd\ 4ff\ 4bb-\	.
4r	4r	.
==:|!	==:|!	==:|!
*-	*-	*-
!!!SMS: Alte Mozart-Ausgabe, Band 20, Breitkopf &amp; H&auml;rtel 1877-1883.
!!!ONB: Stich und Druck von Breitkopf &amp; H&auml;rtel in Leipzig
!!!ONB: Ausgegeben 1878
!!!ENC: Craig Stuart Sapp
!!!END: 2009/10/08/
!!!title: @{OTL}, K 576, @{OMV}
!!!hum2abc: --no-tempo -s 0.65 --spacing 2.0 -p "%gracespace  0 6.0 12.0"
